packages/sources/icons/src/vitamix/emotion-sad-fill.svg

<svg width="16" height="16" viewBox="0 0 16 16" fill="none" xmlns="http://www.w3.org/2000/svg">
<path fill-rule="evenodd" clip-rule="evenodd" d="M14.6667 8.00001C14.6667 4.31801 11.682 1.33334 8 1.33334C4.318 1.33334 1.33333 4.31801 1.33333 8.00001C1.33333 11.682 4.318 14.6667 8 14.6667C9.79362 14.6689 11.5121 13.9465 12.7653 12.6633C12.2304 12.7032 11.7236 12.4185 11.4793 11.9409C11.235 11.4634 11.3006 10.8859 11.646 10.4753L11.724 10.3907L12.6667 9.44801L13.6093 10.3907L13.6913 10.4807C13.8171 10.631 13.9077 10.8075 13.9567 10.9973C14.425 10.0677 14.6683 9.04097 14.6667 8.00001ZM5.64406 10.9753C6.24673 10.3733 7.08006 10 8.00006 10C8.93944 9.99876 9.83551 10.395 10.4667 11.0907L9.83673 11.664L9.65739 11.5973C9.16939 11.4293 8.60339 11.3333 8.00006 11.3333C7.32139 11.3333 6.69006 11.4547 6.16339 11.6647L5.53339 11.0913L5.64406 10.9753ZM5.66666 6.66668C5.11438 6.66668 4.66666 7.11439 4.66666 7.66668C4.66666 8.21896 5.11438 8.66668 5.66666 8.66668C6.21895 8.66668 6.66666 8.21896 6.66666 7.66668C6.66666 7.11439 6.21895 6.66668 5.66666 6.66668ZM9.33333 7.66668C9.33333 7.11439 9.78104 6.66668 10.3333 6.66668C10.8856 6.66668 11.3333 7.11439 11.3333 7.66668C11.3333 8.21896 10.8856 8.66668 10.3333 8.66668C9.78104 8.66668 9.33333 8.21896 9.33333 7.66668Z" fill="#001018"/>
</svg>

<svg width="16" height="16" fill="none" xmlns="http://www.w3.org/2000/svg"><path fill-rule="evenodd" clip-rule="evenodd" d="M14.667 8a6.667 6.667 0 1 0-1.902 4.663 1.333 1.333 0 0 1-1.119-2.188l.078-.084.943-.943.942.943.082.09c.126.15.217.326.266.516A6.64 6.64 0 0 0 14.667 8zm-9.023 2.975A3.325 3.325 0 0 1 8 10a3.325 3.325 0 0 1 2.467 1.09l-.63.574-.18-.067A5.128 5.128 0 0 0 8 11.333c-.679 0-1.31.122-1.837.332l-.63-.574.111-.116zm.023-4.308a1 1 0 1 0 0 2 1 1 0 0 0 0-2zm3.666 1a1 1 0 1 1 2 0 1 1 0 0 1-2 0z" fill="#001018"/></svg>
